X: 8688
T: Crossing, The
R: reel
M: 4/4
K: Amajor
EG|ABAG E3 G|Acdc ecAG|ABAG ECA,C|D=GED CDE^G|
ABAG E3 G|Acdc ecAc|egab agec|d=ged cA B^G|
A3 B AGEG|Acdc ecAG|ABAG ECA,C|D=GED CA,E^G|
ABAG E3 G|Acdc ecAc|egab agec|d=ged cABc||
BAFG AEGA||F3 G FEFG|AGFB, CA,A,C|DB,ED CB,A,C|DB,FD EAGA|
F3 G FEFG|AGFE CDEC|DB,FD EAGF|EDCB, A,CEA|
F3 G FEFG|AGFE CDEC|DB,ED CB,A,C|DEFD EAGA|
F3 G FEFG|AGFE CDEC|DB,FD EAGF|EDCB, A,C||

